devices/symbolic/input-mouse-symbolic.svg

<svg xmlns="http://www.w3.org/2000/svg" viewBox="0 0 16 16">
  <defs id="defs3051">
    <style type="text/css" id="current-color-scheme">
      .ColorScheme-Text {
        color:#4d4d4d;
      }
      </style>
  </defs>
 <path 
     style="fill:#bebebe;fill-opacity:1;stroke:none" 
     class="ColorScheme-Text"
     d="M 7.5 0.013671875 C 4.68919 0.26484188 2.5 2.6119144 2.5 5.4902344 L 2.5 5.9902344 L 7.5 5.9902344 L 7.5 0.013671875 z M 8.5 0.013671875 L 8.5 5.9902344 L 13.5 5.9902344 L 13.5 5.4902344 C 13.5 2.6119144 11.31081 0.26484188 8.5 0.013671875 z M 2.5 6.9902344 L 2.5 10.490234 C 2.5 13.537234 4.953 15.990234 8 15.990234 C 11.047 15.990234 13.5 13.537234 13.5 10.490234 L 13.5 6.9902344 L 8.5 6.9902344 L 7.5 6.9902344 L 2.5 6.9902344 z "
     />
</svg>

<svg xmlns="http://www.w3.org/2000/svg" viewBox="0 0 16 16">
  <path fill="#bebebe" d="M7.5.014c-2.81.25-5 2.598-5 5.476v.5h5V.014zm1 0V5.99h5v-.5a5.486 5.486 0 0 0-5-5.476zm-6 6.976v3.5c0 3.047 2.453 5.5 5.5 5.5s5.5-2.453 5.5-5.5v-3.5h-11z"/>
</svg>
